Newaita-dark/apps/64/cantor.svg

<svg height="64pt" viewBox="0 0 64 64" width="64pt" xmlns="http://www.w3.org/2000/svg" xmlns:xlink="http://www.w3.org/1999/xlink"><linearGradient id="a" gradientUnits="userSpaceOnUse" x1="31.75304" x2="31.75304" y1="56.067872" y2="58.71396000006"><stop offset="0" stop-opacity=".27451"/><stop offset="1" stop-opacity="0"/></linearGradient><linearGradient id="b"><stop offset="0" stop-opacity=".313726"/><stop offset=".222222" stop-opacity=".27451"/><stop offset="1" stop-opacity="0"/></linearGradient><radialGradient id="c" cx="450.908936" cy="189.579361" gradientTransform="matrix(.00000035 -.156265 -.281277 -.0000002 106.24586 127.190665)" gradientUnits="userSpaceOnUse" r="21.166656" xlink:href="#b"/><radialGradient id="d" cx="450.908936" cy="189.579361" gradientTransform="matrix(-.00000035 .156265 .281277 .0000002 -42.409041 -15.054958)" gradientUnits="userSpaceOnUse" r="21.166656" xlink:href="#b"/><radialGradient id="e" cx="450.908936" cy="189.579361" gradientTransform="matrix(-.00000035 -.156265 .281277 -.0000002 -42.409041 127.190665)" gradientUnits="userSpaceOnUse" r="21.166656" xlink:href="#b"/><radialGradient id="f" cx="450.908936" cy="189.579361" gradientTransform="matrix(.00000035 .156265 -.281277 .0000002 106.245857 -15.054959)" gradientUnits="userSpaceOnUse" r="21.166656" xlink:href="#b"/><linearGradient id="g" gradientUnits="userSpaceOnUse" x1="31.753048" x2="31.753048" y1="56.067868" y2="5.79221000013"><stop offset="0" stop-color="#a1887f"/><stop offset="1" stop-color="#bcaaa4"/></linearGradient><linearGradient id="h" gradientTransform="matrix(.113106 0 0 .111853 3.024099 27.304142)" gradientUnits="userSpaceOnUse" x1="254" x2="254" y1="233.5" y2="-168.666656"><stop offset="0" stop-color="#795548"/><stop offset="1" stop-color="#8d6e63"/></linearGradient><path d="m10.253906 56.066406h43.328125v2.648438h-43.328125zm0 0" fill="url(#a)"/><path d="m53.582031 56.066406h5.292969v-2.644531h-5.292969zm0 0" fill="url(#c)"/><path d="m10.253906 56.066406h-5.292968v2.648438h5.292968zm0 0" fill="url(#d)"/><path d="m10.253906 56.066406h-5.292968v-2.644531h5.292968zm0 0" fill="url(#e)"/><path d="m53.582031 56.066406h5.292969v2.648438h-5.292969zm0 0" fill="url(#f)"/><path d="m6.613281 5.792969h50.277344c1.460937 0 2.644531 1.183593 2.644531 2.644531v44.984375c0 1.460937-1.183594 2.644531-2.644531 2.644531h-50.277344c-1.460937 0-2.644531-1.183594-2.644531-2.644531v-44.984375c0-1.460938 1.183594-2.644531 2.644531-2.644531zm0 0" fill="url(#g)"/><path d="m6.613281 5.792969c-1.464843 0-2.644531 1.179687-2.644531 2.644531v.664062c0-1.46875 1.179688-2.648437 2.644531-2.648437h50.277344c1.464844 0 2.644531 1.179687 2.644531 2.648437v-.664062c0-1.464844-1.179687-2.644531-2.644531-2.644531zm0 0" fill="#fbfbfb" fill-opacity=".392157"/><path d="m6.613281 56.066406c-1.464843 0-2.644531-1.179687-2.644531-2.644531v-.660156c0 1.464843 1.179688 2.644531 2.644531 2.644531h50.277344c1.464844 0 2.644531-1.179688 2.644531-2.644531v.660156c0 1.464844-1.179687 2.644531-2.644531 2.644531zm0 0" fill-opacity=".235294"/><path d="m6.613281 5.605469c-1.566406 0-2.832031 1.265625-2.832031 2.832031v44.984375c0 1.566406 1.265625 2.832031 2.832031 2.832031h50.277344c1.566406 0 2.832031-1.265625 2.832031-2.832031v-44.984375c0-1.566406-1.265625-2.832031-2.832031-2.832031zm0 .375h50.277344c1.367187 0 2.457031 1.09375 2.457031 2.457031v44.984375c0 1.367187-1.089844 2.457031-2.457031 2.457031h-50.277344c-1.363281 0-2.457031-1.089844-2.457031-2.457031v-44.984375c0-1.363281 1.09375-2.457031 2.457031-2.457031zm0 0" fill="#212121"/><path d="m8.601562 8.4375h46.304688c1.097656 0 1.984375.890625 1.984375 1.984375v41.015625c0 1.097656-.886719 1.984375-1.984375 1.984375h-46.304688c-1.097656 0-1.988281-.886719-1.988281-1.984375v-41.015625c0-1.09375.890625-1.984375 1.988281-1.984375zm0 0" fill="url(#h)"/><path d="m6.613281 51.4375v.660156c0 1.101563.886719 1.984375 1.988281 1.984375h46.304688c1.097656 0 1.984375-.882812 1.984375-1.984375v-.660156c0 1.097656-.886719 1.984375-1.984375 1.984375h-46.304688c-1.101562 0-1.988281-.886719-1.988281-1.984375zm0 0" fill="#fff" fill-opacity=".392157"/><path d="m8.601562 8.4375c-1.101562 0-1.988281.886719-1.988281 1.984375v.992187c0-1.097656.886719-1.984374 1.988281-1.984374h46.304688c1.097656 0 1.984375.886718 1.984375 1.984374v-.992187c0-1.097656-.886719-1.984375-1.984375-1.984375zm0 0" fill-opacity=".235294"/><path d="m68.805929-147.506445h370.402129c8.780411 0 15.873484 7.124319 15.873484 15.873484v328.093668c0 8.780412-7.093073 15.873485-15.873484 15.873485h-370.402129c-8.780411 0-15.904731-7.093073-15.904731-15.873485v-328.093668c0-8.749165 7.12432-15.873484 15.904731-15.873484zm0 0" fill="none" stroke="#212121" stroke-linecap="round" stroke-linejoin="round" stroke-width="3" transform="matrix(.125012 0 0 .125012 0 26.877566)"/><g fill="#fff" fill-opacity=".392157"><path d="m34.398438 17.027344c-.847657 0-1.601563.53125-1.882813 1.332031l-6.269531 17.757813-3.253906-7.320313c-.320313-.722656-1.035157-1.1875-1.824219-1.1875h-3.96875c-.71875-.007813-1.386719.371094-1.75.992187-.359375.621094-.359375 1.390626 0 2.011719.363281.621094 1.03125 1 1.75.992188h2.671875l4.246094 9.554687c.546874-.902344 1.019531-1.527344 1.019531-.96875 0 .5625-.238281 1.367188-.515625 2.101563l.015625.03125c.070312.15625.160156.304687.269531.4375 1.171875-1.464844 2.878906-3.4375 2.878906-2.570313 0 .660156-.332031 1.980469-.496094 3.136719.492188-.222656.875-.636719 1.054688-1.148437l7.46875-21.160157h9.171875c.71875.007813 1.382813-.371093 1.746094-.992187.359375-.621094.359375-1.386719 0-2.007813-.363281-.621093-1.027344-1-1.746094-.992187zm0 0"/><path d="m37.023438 27.585938c-.742188.003906-1.417969.414062-1.761719 1.070312s-.296875 1.449219.121093 2.058594l3.230469 4.847656-3.230469 4.84375c-.554687.808594-.441406 1.898438.265626 2.574219l.074218-.144531s2.644532-5.289063 2.644532-3.96875c0 1.324218-1.320313 3.96875-1.320313 3.96875s3.96875-5.289063 3.96875-3.96875c0 .09375-.007813.203124-.019531.324218l.019531-.03125 1.597656 2.398438c.625-1.558594 1.253907-3.460938 1.707031-4.640625l-.90625-1.355469 3.230469-4.847656c.425781-.621094.46875-1.425782.109375-2.085938s-1.058594-1.0625-1.808594-1.042968c-.660156.019531-1.265624.359374-1.625.914062l-2.304687 3.460938-2.308594-3.460938c-.371093-.570312-1.003906-.914062-1.683593-.914062zm7.785156 10.066406c-.34375 1.6875-1.113282 3.742187-1.402344 5.085937.3125.414063.773438.691407 1.285156.769531.734375-.75 1.546875-1.988281 2.132813-2.78125-.050781-.109374-.109375-.21875-.179688-.320312zm2.183594 4.019531c-.304688.507813-.664063 1.058594-.96875 1.578125.5625-.335938.921874-.925781.96875-1.578125zm0 0"/></g></svg>

<?xml version="1.0" encoding="UTF-8"?>
<svg xmlns="http://www.w3.org/2000/svg" xmlns:xlink="http://www.w3.org/1999/xlink" width="64pt" height="64pt" viewBox="0 0 64 64" version="1.1">
<defs>
<linearGradient id="linear0" gradientUnits="userSpaceOnUse" x1="254" y1="233.5" x2="254" y2="254.666672" gradientTransform="matrix(0.125012,0,0,0.125012,-0.00000763012,26.87757)">
<stop offset="0" style="stop-color:rgb(0%,0%,0%);stop-opacity:0.27451;"/>
<stop offset="1" style="stop-color:rgb(0%,0%,0%);stop-opacity:0;"/>
</linearGradient>
<radialGradient id="radial0" gradientUnits="userSpaceOnUse" cx="450.908936" cy="189.579361" fx="450.908936" fy="189.579361" r="21.166656" gradientTransform="matrix(0.000000348341,-0.156265,-0.281277,-0.000000203077,106.24586,127.190665)">
<stop offset="0" style="stop-color:rgb(0%,0%,0%);stop-opacity:0.313726;"/>
<stop offset="0.222222" style="stop-color:rgb(0%,0%,0%);stop-opacity:0.27451;"/>
<stop offset="1" style="stop-color:rgb(0%,0%,0%);stop-opacity:0;"/>
</radialGradient>
<radialGradient id="radial1" gradientUnits="userSpaceOnUse" cx="450.908936" cy="189.579361" fx="450.908936" fy="189.579361" r="21.166656" gradientTransform="matrix(-0.000000348341,0.156265,0.281277,0.000000203077,-42.409041,-15.054958)">
<stop offset="0" style="stop-color:rgb(0%,0%,0%);stop-opacity:0.313726;"/>
<stop offset="0.222222" style="stop-color:rgb(0%,0%,0%);stop-opacity:0.27451;"/>
<stop offset="1" style="stop-color:rgb(0%,0%,0%);stop-opacity:0;"/>
</radialGradient>
<radialGradient id="radial2" gradientUnits="userSpaceOnUse" cx="450.908936" cy="189.579361" fx="450.908936" fy="189.579361" r="21.166656" gradientTransform="matrix(-0.000000348341,-0.156265,0.281277,-0.000000203077,-42.409041,127.190665)">
<stop offset="0" style="stop-color:rgb(0%,0%,0%);stop-opacity:0.313726;"/>
<stop offset="0.222222" style="stop-color:rgb(0%,0%,0%);stop-opacity:0.27451;"/>
<stop offset="1" style="stop-color:rgb(0%,0%,0%);stop-opacity:0;"/>
</radialGradient>
<radialGradient id="radial3" gradientUnits="userSpaceOnUse" cx="450.908936" cy="189.579361" fx="450.908936" fy="189.579361" r="21.166656" gradientTransform="matrix(0.000000348341,0.156265,-0.281277,0.000000203077,106.245857,-15.054959)">
<stop offset="0" style="stop-color:rgb(0%,0%,0%);stop-opacity:0.313726;"/>
<stop offset="0.222222" style="stop-color:rgb(0%,0%,0%);stop-opacity:0.27451;"/>
<stop offset="1" style="stop-color:rgb(0%,0%,0%);stop-opacity:0;"/>
</radialGradient>
<linearGradient id="linear1" gradientUnits="userSpaceOnUse" x1="254" y1="233.5" x2="254" y2="-168.666656" gradientTransform="matrix(0.125012,0,0,0.125012,0,26.877566)">
<stop offset="0" style="stop-color:rgb(63.137257%,53.333336%,49.803922%);stop-opacity:1;"/>
<stop offset="1" style="stop-color:rgb(73.725492%,66.666669%,64.313728%);stop-opacity:1;"/>
</linearGradient>
<linearGradient id="linear2" gradientUnits="userSpaceOnUse" x1="254" y1="233.5" x2="254" y2="-168.666656" gradientTransform="matrix(0.113106,0,0,0.111853,3.024099,27.304142)">
<stop offset="0" style="stop-color:rgb(47.450981%,33.333334%,28.235295%);stop-opacity:1;"/>
<stop offset="1" style="stop-color:rgb(55.29412%,43.137255%,38.82353%);stop-opacity:1;"/>
</linearGradient>
</defs>
<g id="surface1">
<path style=" stroke:none;fill-rule:nonzero;fill:url(#linear0);" d="M 10.253906 56.066406 L 53.582031 56.066406 L 53.582031 58.714844 L 10.253906 58.714844 Z M 10.253906 56.066406 "/>
<path style=" stroke:none;fill-rule:nonzero;fill:url(#radial0);" d="M 53.582031 56.066406 L 58.875 56.066406 L 58.875 53.421875 L 53.582031 53.421875 Z M 53.582031 56.066406 "/>
<path style=" stroke:none;fill-rule:nonzero;fill:url(#radial1);" d="M 10.253906 56.066406 L 4.960938 56.066406 L 4.960938 58.714844 L 10.253906 58.714844 Z M 10.253906 56.066406 "/>
<path style=" stroke:none;fill-rule:nonzero;fill:url(#radial2);" d="M 10.253906 56.066406 L 4.960938 56.066406 L 4.960938 53.421875 L 10.253906 53.421875 Z M 10.253906 56.066406 "/>
<path style=" stroke:none;fill-rule:nonzero;fill:url(#radial3);" d="M 53.582031 56.066406 L 58.875 56.066406 L 58.875 58.714844 L 53.582031 58.714844 Z M 53.582031 56.066406 "/>
<path style=" stroke:none;fill-rule:nonzero;fill:url(#linear1);" d="M 6.613281 5.792969 L 56.890625 5.792969 C 58.351562 5.792969 59.535156 6.976562 59.535156 8.4375 L 59.535156 53.421875 C 59.535156 54.882812 58.351562 56.066406 56.890625 56.066406 L 6.613281 56.066406 C 5.152344 56.066406 3.96875 54.882812 3.96875 53.421875 L 3.96875 8.4375 C 3.96875 6.976562 5.152344 5.792969 6.613281 5.792969 Z M 6.613281 5.792969 "/>
<path style=" stroke:none;fill-rule:nonzero;fill:rgb(98.431373%,98.431373%,98.431373%);fill-opacity:0.392157;" d="M 6.613281 5.792969 C 5.148438 5.792969 3.96875 6.972656 3.96875 8.4375 L 3.96875 9.101562 C 3.96875 7.632812 5.148438 6.453125 6.613281 6.453125 L 56.890625 6.453125 C 58.355469 6.453125 59.535156 7.632812 59.535156 9.101562 L 59.535156 8.4375 C 59.535156 6.972656 58.355469 5.792969 56.890625 5.792969 Z M 6.613281 5.792969 "/>
<path style=" stroke:none;fill-rule:nonzero;fill:rgb(0%,0%,0%);fill-opacity:0.235294;" d="M 6.613281 56.066406 C 5.148438 56.066406 3.96875 54.886719 3.96875 53.421875 L 3.96875 52.761719 C 3.96875 54.226562 5.148438 55.40625 6.613281 55.40625 L 56.890625 55.40625 C 58.355469 55.40625 59.535156 54.226562 59.535156 52.761719 L 59.535156 53.421875 C 59.535156 54.886719 58.355469 56.066406 56.890625 56.066406 Z M 6.613281 56.066406 "/>
<path style=" stroke:none;fill-rule:nonzero;fill:rgb(12.941177%,12.941177%,12.941177%);fill-opacity:1;" d="M 6.613281 5.605469 C 5.046875 5.605469 3.78125 6.871094 3.78125 8.4375 L 3.78125 53.421875 C 3.78125 54.988281 5.046875 56.253906 6.613281 56.253906 L 56.890625 56.253906 C 58.457031 56.253906 59.722656 54.988281 59.722656 53.421875 L 59.722656 8.4375 C 59.722656 6.871094 58.457031 5.605469 56.890625 5.605469 Z M 6.613281 5.980469 L 56.890625 5.980469 C 58.257812 5.980469 59.347656 7.074219 59.347656 8.4375 L 59.347656 53.421875 C 59.347656 54.789062 58.257812 55.878906 56.890625 55.878906 L 6.613281 55.878906 C 5.25 55.878906 4.15625 54.789062 4.15625 53.421875 L 4.15625 8.4375 C 4.15625 7.074219 5.25 5.980469 6.613281 5.980469 Z M 6.613281 5.980469 "/>
<path style=" stroke:none;fill-rule:nonzero;fill:url(#linear2);" d="M 8.601562 8.4375 L 54.90625 8.4375 C 56.003906 8.4375 56.890625 9.328125 56.890625 10.421875 L 56.890625 51.4375 C 56.890625 52.535156 56.003906 53.421875 54.90625 53.421875 L 8.601562 53.421875 C 7.503906 53.421875 6.613281 52.535156 6.613281 51.4375 L 6.613281 10.421875 C 6.613281 9.328125 7.503906 8.4375 8.601562 8.4375 Z M 8.601562 8.4375 "/>
<path style=" stroke:none;fill-rule:nonzero;fill:rgb(100%,100%,100%);fill-opacity:0.392157;" d="M 6.613281 51.4375 L 6.613281 52.097656 C 6.613281 53.199219 7.5 54.082031 8.601562 54.082031 L 54.90625 54.082031 C 56.003906 54.082031 56.890625 53.199219 56.890625 52.097656 L 56.890625 51.4375 C 56.890625 52.535156 56.003906 53.421875 54.90625 53.421875 L 8.601562 53.421875 C 7.5 53.421875 6.613281 52.535156 6.613281 51.4375 Z M 6.613281 51.4375 "/>
<path style=" stroke:none;fill-rule:nonzero;fill:rgb(0%,0%,0%);fill-opacity:0.235294;" d="M 8.601562 8.4375 C 7.5 8.4375 6.613281 9.324219 6.613281 10.421875 L 6.613281 11.414062 C 6.613281 10.316406 7.5 9.429688 8.601562 9.429688 L 54.90625 9.429688 C 56.003906 9.429688 56.890625 10.316406 56.890625 11.414062 L 56.890625 10.421875 C 56.890625 9.324219 56.003906 8.4375 54.90625 8.4375 Z M 8.601562 8.4375 "/>
<path style="fill:none;stroke-width:3;stroke-linecap:round;stroke-linejoin:round;stroke:rgb(12.941177%,12.941177%,12.941177%);stroke-opacity:1;stroke-miterlimit:4;" d="M 68.805929 -147.506445 L 439.208058 -147.506445 C 447.988469 -147.506445 455.081542 -140.382126 455.081542 -131.632961 L 455.081542 196.460707 C 455.081542 205.241119 447.988469 212.334192 439.208058 212.334192 L 68.805929 212.334192 C 60.025518 212.334192 52.901198 205.241119 52.901198 196.460707 L 52.901198 -131.632961 C 52.901198 -140.382126 60.025518 -147.506445 68.805929 -147.506445 Z M 68.805929 -147.506445 " transform="matrix(0.125012,0,0,0.125012,0,26.877566)"/>
<path style=" stroke:none;fill-rule:nonzero;fill:rgb(100%,100%,100%);fill-opacity:0.392157;" d="M 34.398438 17.027344 C 33.550781 17.027344 32.796875 17.558594 32.515625 18.359375 L 26.246094 36.117188 L 22.992188 28.796875 C 22.671875 28.074219 21.957031 27.609375 21.167969 27.609375 L 17.199219 27.609375 C 16.480469 27.601562 15.8125 27.980469 15.449219 28.601562 C 15.089844 29.222656 15.089844 29.992188 15.449219 30.613281 C 15.8125 31.234375 16.480469 31.613281 17.199219 31.605469 L 19.871094 31.605469 L 24.117188 41.160156 C 24.664062 40.257812 25.136719 39.632812 25.136719 40.191406 C 25.136719 40.753906 24.898438 41.558594 24.621094 42.292969 L 24.636719 42.324219 C 24.707031 42.480469 24.796875 42.628906 24.90625 42.761719 C 26.078125 41.296875 27.785156 39.324219 27.785156 40.191406 C 27.785156 40.851562 27.453125 42.171875 27.289062 43.328125 C 27.78125 43.105469 28.164062 42.691406 28.34375 42.179688 L 35.8125 21.019531 L 44.984375 21.019531 C 45.703125 21.027344 46.367188 20.648438 46.730469 20.027344 C 47.089844 19.40625 47.089844 18.640625 46.730469 18.019531 C 46.367188 17.398438 45.703125 17.019531 44.984375 17.027344 Z M 34.398438 17.027344 "/>
<path style=" stroke:none;fill-rule:nonzero;fill:rgb(100%,100%,100%);fill-opacity:0.392157;" d="M 37.023438 27.585938 C 36.28125 27.589844 35.605469 28 35.261719 28.65625 C 34.917969 29.3125 34.964844 30.105469 35.382812 30.714844 L 38.613281 35.5625 L 35.382812 40.40625 C 34.828125 41.214844 34.941406 42.304688 35.648438 42.980469 L 35.722656 42.835938 C 35.722656 42.835938 38.367188 37.546875 38.367188 38.867188 C 38.367188 40.191406 37.046875 42.835938 37.046875 42.835938 C 37.046875 42.835938 41.015625 37.546875 41.015625 38.867188 C 41.015625 38.960938 41.007812 39.070312 40.996094 39.191406 L 41.015625 39.160156 L 42.613281 41.558594 C 43.238281 40 43.867188 38.097656 44.320312 36.917969 L 43.414062 35.5625 L 46.644531 30.714844 C 47.070312 30.09375 47.113281 29.289062 46.753906 28.628906 C 46.394531 27.96875 45.695312 27.566406 44.945312 27.585938 C 44.285156 27.605469 43.679688 27.945312 43.320312 28.5 L 41.015625 31.960938 L 38.707031 28.5 C 38.335938 27.929688 37.703125 27.585938 37.023438 27.585938 Z M 44.808594 37.652344 C 44.464844 39.339844 43.695312 41.394531 43.40625 42.738281 C 43.71875 43.152344 44.179688 43.429688 44.691406 43.507812 C 45.425781 42.757812 46.238281 41.519531 46.824219 40.726562 C 46.773438 40.617188 46.714844 40.507812 46.644531 40.40625 Z M 46.992188 41.671875 C 46.6875 42.179688 46.328125 42.730469 46.023438 43.25 C 46.585938 42.914062 46.945312 42.324219 46.992188 41.671875 Z M 46.992188 41.671875 "/>
</g>
</svg>
